img/icons/OverlineMark.svg

<svg width="28" height="27" viewBox="0 0 28 27" fill="none" xmlns="http://www.w3.org/2000/svg">
<path d="M11.272 6.61765L9.71362 8.17279L14.7757 13.2353L9.71362 18.2978L11.272 19.8529L17.9036 13.2353L11.272 6.61765Z" fill="#959595"/>
<path d="M10.5908 10.4228L9.72498 9.55884L6.04077 13.2353L9.72498 16.9118L10.5908 16.0478L7.77849 13.2353L10.5908 10.4228Z" fill="black"/>
</svg>

<svg width="28" height="27" fill="none" xmlns="http://www.w3.org/2000/svg">
  <path d="M11.272 6.618L9.714 8.173l5.062 5.062-5.062 5.063 1.558 1.555 6.632-6.618-6.632-6.617z" fill="#959595"/>
  <path d="M10.59 10.423l-.865-.864-3.684 3.676 3.684 3.677.866-.864-2.813-2.813 2.813-2.812z" fill="#000"/>
</svg>
